Assets/symbols/main_menu/challenge_modes/custom.svg

<svg xmlns="http://www.w3.org/2000/svg" width="409.603" height="409.7" viewBox="0 0 409.603 409.7"><title>custom</title><path d="M326.4,409.7H311.2c-1.142-.281-2.27-.661-3.429-.83-24.939-3.63-45.089-15.465-60.268-35.54-12.311-16.281-18.021-34.8-17.868-55.179.011-1.4.071-3.293-.742-4.133-7.848-8.108-15.879-16.039-24.817-24.98a30.007,30.007,0,0,1-2.945,4.306q-42.49,42.594-85.117,85.05a15.349,15.349,0,0,1-6.686,3.843c-27.07,6.892-54.2,13.549-81.291,20.364-8.848,2.225-17.627,4.725-26.437,7.1H0c9.085-36.274,18.125-72.559,27.349-108.8a16.878,16.878,0,0,1,4.151-7.392q42.411-42.718,85.058-85.2c1.091-1.091,2.128-2.237,3.343-3.519-7.117-7.1-14.067-13.725-20.62-20.72-2.9-3.1-5.915-4.087-10.084-4.133-25.223-.274-46.858-9.483-64.149-27.8C-5.05,120.242-8.617,75.692,17.575,35.069L72.344,89.9,89.872,72.362,34.718,17.4c4.985-2.559,9.665-5.026,14.4-7.379C66.695,1.286,85.229-2.191,104.6,1.4c42.688,7.912,71.867,39.867,74.9,83.151.614,8.773,3.461,14.533,9.587,19.941,5.449,4.812,10.331,10.266,16.291,16.27a32.294,32.294,0,0,1,2.882-4.094Q225.166,99.641,242.17,82.7c22.532-22.532,44.992-45.136,67.619-67.573,20.27-20.1,49.422-20.027,69.676-.021,5.217,5.153,10.365,10.375,15.562,15.549a48.829,48.829,0,0,1,13.494,24.5c.309,1.391.719,2.76,1.082,4.139V70.5c-.194.34-.519.664-.564,1.023-1.515,12.052-7.522,21.6-16,30.038q-50.013,49.76-99.837,99.708c-1.108,1.106-2.662,1.763-4.376,2.866,6.889,6.874,13.009,12.423,18.444,18.576,4.525,5.122,9.3,8.4,16.448,7.121,1.76-.314,3.7.3,5.543.543,36.085,4.8,60.883,24.335,74.453,57.882,2.947,7.283,3.976,15.342,5.888,23.043v16c-.277,1.416-.643,2.821-.817,4.249-1.923,15.761-8.911,29.546-16.647,43.439l-54.951-55.011-17.155,17.17c8.955,8.953,18.17,18.153,27.383,27.363,9.166,9.162,18.328,18.328,28.5,28.5-12.035,4.864-22.859,9.57-33.939,13.567C337.049,408.351,331.609,408.7,326.4,409.7ZM25.8,76.974a11.083,11.083,0,0,0-.659,1.556c-5.878,28.775,11.026,60.418,38.327,71.964,11.307,4.782,22.982,6.693,35.155,4.959,3.51-.5,6.212-.053,8.828,2.809,5.392,5.9,11.254,11.367,16.885,17.049,4.108,4.146,8.157,8.351,11.632,11.914L187,136.2c-9.474-9.465-19.3-19.421-29.319-29.179A7.545,7.545,0,0,1,155.2,100a80.184,80.184,0,0,0,.7-12.751,63.925,63.925,0,0,0-11.829-34.791L72.641,123.83ZM273.3,222.535l-50.925,50.92c8.915,8.879,17.981,18.271,27.488,27.194,3.8,3.569,4.887,7.008,4.25,12.181-1.959,15.922,2,30.573,11.125,44.219,23.853-23.833,47.5-47.456,71.342-71.285,7.96,7.971,15.772,15.791,23.582,23.614,7.79,7.8,15.579,15.605,23.709,23.749a56.187,56.187,0,0,0,.784-24.361c-5.668-34.361-37.721-58.591-72.323-54.508-4.864.574-8.122-.462-11.493-4.014C291.776,240.691,282.3,231.526,273.3,222.535ZM72.839,318.587,280.233,111.281,264.64,95.661,57.26,303.037ZM298.5,128.91,91.159,336.343l16,16.127,207.5-207.508Zm17.59-86.368,50.245,50.239c4.458-4.11,9.693-8.135,13.931-13.024a22.7,22.7,0,0,0-.066-29.434,254.127,254.127,0,0,0-20.9-20.888c-7.773-6.924-20.352-7.161-28.511-.694C325.412,33.005,320.724,38.144,316.092,42.542Zm16.073,84.514,16.008-16.372c-16.294-16.293-33.027-33.024-49.549-49.546l-16.16,16.214ZM33.1,376.621l49.639-12.43L45.483,327C41.471,343.067,37.4,359.391,33.1,376.621ZM77.534,25.39l29.532,29.531,19.605-19.653C111.709,25.577,95.232,21.96,77.534,25.39Zm225.255,329.3-19.621,20c14.829,9.558,31.3,13.175,49.161,9.652Z" fill="#666"/></svg>

<svg xmlns="http://www.w3.org/2000/svg" width="409.603" height="409.7" viewBox="0 0 409.603 409.7">
<path d="M 326.4 409.7 H 311.2 C 310.058 409.419 308.93 409.039 307.771 408.87 C 282.832 405.24 262.682 393.405 247.503 373.33 C 235.192 357.049 229.482 338.53 229.635 318.151 C 229.646 316.751 229.706 314.858 228.893 314.018 C 221.045 305.91 213.014 297.979 204.076 289.038 A 30.007 30.007 0 0 1 201.131 293.344 Q 158.641 335.938 116.014 378.394 A 15.349 15.349 0 0 1 109.328 382.237 C 82.258 389.129 55.128 395.786 28.037 402.601 C 19.189 404.826 10.41 407.326 1.6 409.701 H 0 C 9.085 373.427 18.125 337.142 27.349 300.901 A 16.878 16.878 0 0 1 31.5 293.509 Q 73.911 250.791 116.558 208.309 C 117.649 207.218 118.686 206.072 119.901 204.79 C 112.784 197.69 105.834 191.065 99.281 184.07 C 96.381 180.97 93.366 179.983 89.197 179.937 C 63.974 179.663 42.339 170.454 25.048 152.137 C -5.05 120.242 -8.617 75.692 17.575 35.069 L 72.344 89.9 L 89.872 72.362 L 34.718 17.4 C 39.703 14.841 44.383 12.374 49.118 10.021 C 66.695 1.286 85.229 -2.191 104.6 1.4 C 147.288 9.312 176.467 41.267 179.5 84.551 C 180.114 93.324 182.961 99.084 189.087 104.492 C 194.536 109.304 199.418 114.758 205.378 120.762 A 32.294 32.294 0 0 1 208.26 116.668 Q 225.166 99.641 242.17 82.7 C 264.702 60.168 287.162 37.564 309.789 15.127 C 330.059 -4.973 359.211 -4.9 379.465 15.106 C 384.682 20.259 389.83 25.481 395.027 30.655 A 48.829 48.829 0 0 1 408.521 55.155 C 408.83 56.546 409.24 57.915 409.603 59.294 V 70.5 C 409.409 70.84 409.084 71.164 409.039 71.523 C 407.524 83.575 401.517 93.123 393.039 101.561 Q 343.026 151.321 293.202 201.269 C 292.094 202.375 290.54 203.032 288.826 204.135 C 295.715 211.009 301.835 216.558 307.27 222.711 C 311.795 227.833 316.57 231.111 323.718 229.832 C 325.478 229.518 327.418 230.132 329.261 230.375 C 365.346 235.175 390.144 254.71 403.714 288.257 C 406.661 295.54 407.69 303.599 409.602 311.3 V 327.3 C 409.325 328.716 408.959 330.121 408.785 331.549 C 406.862 347.31 399.874 361.095 392.138 374.988 L 337.187 319.977 L 320.032 337.147 C 328.987 346.1 338.202 355.3 347.415 364.51 C 356.581 373.672 365.743 382.838 375.915 393.01 C 363.88 397.874 353.056 402.58 341.976 406.577 C 337.049 408.351 331.609 408.7 326.4 409.7 Z M 25.8 76.974 A 11.083 11.083 0 0 0 25.141 78.53 C 19.263 107.305 36.167 138.948 63.468 150.494 C 74.775 155.276 86.45 157.187 98.623 155.453 C 102.133 154.953 104.835 155.4 107.451 158.262 C 112.843 164.162 118.705 169.629 124.336 175.311 C 128.444 179.457 132.493 183.662 135.968 187.225 L 187 136.2 C 177.526 126.735 167.7 116.779 157.681 107.021 A 7.545 7.545 0 0 1 155.2 100 A 80.184 80.184 0 0 0 155.9 87.249 A 63.925 63.925 0 0 0 144.071 52.458 L 72.641 123.83 Z M 273.3 222.535 L 222.375 273.455 C 231.29 282.334 240.356 291.726 249.863 300.649 C 253.663 304.218 254.75 307.657 254.113 312.83 C 252.154 328.752 256.113 343.403 265.238 357.049 C 289.091 333.216 312.738 309.593 336.58 285.764 C 344.54 293.735 352.352 301.555 360.162 309.378 C 367.952 317.178 375.741 324.983 383.871 333.127 A 56.187 56.187 0 0 0 384.655 308.766 C 378.987 274.405 346.934 250.175 312.332 254.258 C 307.468 254.832 304.21 253.796 300.839 250.244 C 291.776 240.691 282.3 231.526 273.3 222.535 Z M 72.839 318.587 L 280.233 111.281 L 264.64 95.661 L 57.26 303.037 Z M 298.5 128.91 L 91.159 336.343 L 107.159 352.47 L 314.659 144.962 Z M 316.09 42.542 L 366.335 92.781 C 370.793 88.671 376.028 84.646 380.266 79.757 A 22.7 22.7 0 0 0 380.2 50.323 A 254.127 254.127 0 0 0 359.3 29.435 C 351.527 22.511 338.948 22.274 330.789 28.741 C 325.412 33.005 320.724 38.144 316.092 42.542 Z M 332.163 127.056 L 348.171 110.684 C 331.877 94.391 315.144 77.66 298.622 61.138 L 282.462 77.352 Z M 33.1 376.621 L 82.739 364.191 L 45.483 327 C 41.471 343.067 37.4 359.391 33.1 376.621 Z M 77.534 25.39 L 107.066 54.921 L 126.671 35.268 C 111.709 25.577 95.232 21.96 77.534 25.39 Z M 302.789 354.69 L 283.168 374.69 C 297.997 384.248 314.468 387.865 332.329 384.342 Z" fill="#666"/>
</svg>
